;Generated by Cura LulzBot Edition GCodeWriter Version: 3.6.20
;FLAVOR:Marlin
;TIME:1214
;Filament used: 0.440669m
;Layer height: 0.14
;Generated with Cura_SteamEngine 3.6.20
M82 ;absolute extrusion mode
;This G-Code has been generated specifically for the LulzBot TAZ 6 with standard extruder
M73 P0 ; clear GLCD progress bar
M75 ; start GLCD timer
G26 ; clear potential 'probe fail' condition
M107 ; disable fans
M420 S0 ; disable previous leveling matrix
G90 ; absolute positioning
M82 ; set extruder to absolute mode
G92 E0 ; set extruder position to 0
M140 S60.0 ; start bed heating up
M109 R140 ; soften filament before homing Z
G1 X140 Y140 Z2 E-30 F400
;G1 E-30 F100 ; retract filament
;This line merged with the above sync command to have all axes activity
G28 ; Home all axis
M109 R140 ; wait for extruder to reach wiping temp
G1 X-15 Y100 F3000 ; move above wiper pad
G1 Z1 ; push nozzle into wiper
G1 X-17 Y95 F1000 ; slow wipe
G1 X-17 Y90 F1000 ; slow wipe
G1 X-17 Y85 F1000 ; slow wipe
G1 X-15 Y90 F1000 ; slow wipe
G1 X-17 Y80 F1000 ; slow wipe
G1 X-15 Y95 F1000 ; slow wipe
G1 X-17 Y75 F2000 ; fast wipe
G1 X-15 Y65 F2000 ; fast wipe
G1 X-17 Y70 F2000 ; fast wipe
G1 X-15 Y60 F2000 ; fast wipe
G1 X-17 Y55 F2000 ; fast wipe
G1 X-15 Y50 F2000 ; fast wipe
G1 X-17 Y40 F2000 ; fast wipe
G1 X-15 Y45 F2000 ; fast wipe
G1 X-17 Y35 F2000 ; fast wipe
G1 X-15 Y40 F2000 ; fast wipe
G1 X-17 Y70 F2000 ; fast wipe
G1 X-15 Y30 Z2 F2000 ; fast wipe
G1 X-17 Y35 F2000 ; fast wipe
G1 X-15 Y25 F2000 ; fast wipe
G1 X-17 Y30 F2000 ; fast wipe
G1 X-15 Y25 Z1.5 F1000 ; slow wipe
G1 X-17 Y23 F1000 ; slow wipe
G1 Z10 ; raise extruder
M109 R140 ; wait for extruder to reach probe temp
G1 X-9 Y-9 ; move above first probe point
M204 S100 ; set probing acceleration
G29 ; start auto-leveling sequence
M420 S1 ; activate bed level matrix
M425 Z			     ; use measured Z backlash for compensation
M425 Z F0		     ; turn off measured Z backlash compensation. (if activated in the quality settings, this command will automatically be ignored)
M204 S500 ; restore standard acceleration
G1 X0 Y0 Z15 F5000 ; move up off last probe point
G4 S1 ; pause
M400 ; wait for moves to finish
M117 Heating... ; progress indicator message on LCD
M109 R210 ; wait for extruder to reach printing temp
M190 R60.0 ; wait for bed to reach printing temp
G1 Z2 E0 F75 ; prime tiny bit of filament into the nozzle
M117 TAZ 6 Printing... ; progress indicator message on LCD

M221 S100 T0
G92 E0
G1 F600 E-1.5
;LAYER_COUNT:70
;LAYER:0
M107
G0 F4500 X131.628 Y131.672 Z0.425
;TYPE:SKIRT
G1 F600 E0
G1 F900 X132.088 Y131.263 E0.05438
G1 X132.598 Y130.916 E0.10888
G1 X133.148 Y130.639 E0.16328
G1 X133.729 Y130.435 E0.21769
G1 X134.332 Y130.307 E0.27215
G1 X135.009 Y130.259 E0.33211
G1 X144.991 Y130.26 E1.21399
G1 X145.606 Y130.3 E1.26844
G1 X146.211 Y130.419 E1.32291
G1 X146.795 Y130.616 E1.37736
G1 X147.348 Y130.886 E1.43173
G1 X147.862 Y131.226 E1.48618
G1 X148.328 Y131.629 E1.54061
G1 X148.737 Y132.09 E1.59505
G1 X149.084 Y132.599 E1.64948
G1 X149.361 Y133.149 E1.70388
G1 X149.565 Y133.731 E1.75837
G1 X149.693 Y134.334 E1.81283
G1 X149.741 Y135.01 E1.8727
G1 X149.741 Y144.991 E2.7545
G1 X149.701 Y145.606 E2.80894
G1 X149.582 Y146.21 E2.86333
G1 X149.385 Y146.794 E2.91778
G1 X149.115 Y147.348 E2.97223
G1 X148.775 Y147.862 E3.02668
G1 X148.372 Y148.328 E3.08111
G1 X147.912 Y148.737 E3.13549
G1 X147.402 Y149.084 E3.18999
G1 X146.852 Y149.361 E3.24439
G1 X146.271 Y149.565 E3.29879
G1 X145.668 Y149.693 E3.35325
G1 X144.991 Y149.741 E3.41321
G1 X135.009 Y149.741 E4.2951
G1 X134.394 Y149.701 E4.34954
G1 X133.79 Y149.582 E4.40393
G1 X133.206 Y149.385 E4.45838
G1 X132.652 Y149.115 E4.51283
G1 X132.138 Y148.775 E4.56728
G1 X131.672 Y148.372 E4.62171
G1 X131.263 Y147.912 E4.67609
G1 X130.916 Y147.402 E4.73059
G1 X130.639 Y146.852 E4.78499
G1 X130.435 Y146.271 E4.83939
G1 X130.307 Y145.668 E4.89385
G1 X130.259 Y144.991 E4.95381
G1 X130.259 Y135.009 E5.8357
G1 X130.299 Y134.394 E5.89014
G1 X130.418 Y133.79 E5.94453
G1 X130.615 Y133.206 E5.99898
G1 X130.885 Y132.652 E6.05343
G1 X131.225 Y132.138 E6.10788
G1 X131.628 Y131.672 E6.16231
G0 F4500 X132.12 Y131.892
G1 F900 X132.574 Y131.526 E6.21383
G1 X133.073 Y131.226 E6.26527
G1 X133.609 Y130.996 E6.3168
G1 X134.171 Y130.842 E6.36828
G1 X135.009 Y130.759 E6.44268
G1 X144.991 Y130.76 E7.32456
G1 X145.573 Y130.8 E7.3761
G1 X146.143 Y130.919 E7.42754
G1 X146.692 Y131.115 E7.47904
G1 X147.209 Y131.385 E7.53057
G1 X147.684 Y131.722 E7.58202
G1 X148.108 Y132.121 E7.63346
G1 X148.474 Y132.575 E7.68498
G1 X148.775 Y133.074 E7.73647
G1 X149.004 Y133.61 E7.78796
G1 X149.158 Y134.172 E7.83944
G1 X149.241 Y135.01 E7.91384
G1 X149.241 Y144.991 E8.79563
G1 X149.201 Y145.572 E8.84708
G1 X149.082 Y146.143 E8.89862
G1 X148.886 Y146.692 E8.95012
G1 X148.617 Y147.208 E9.00153
G1 X148.279 Y147.684 E9.0531
G1 X147.88 Y148.108 E9.10454
G1 X147.426 Y148.474 E9.15606
G1 X146.927 Y148.774 E9.2075
G1 X146.391 Y149.004 E9.25903
G1 X145.829 Y149.158 E9.31051
G1 X144.991 Y149.241 E9.38491
G1 X135.009 Y149.241 E10.26679
G1 X134.428 Y149.201 E10.31824
G1 X133.857 Y149.082 E10.36977
G1 X133.308 Y148.886 E10.42127
G1 X132.792 Y148.617 E10.47268
G1 X132.316 Y148.279 E10.52426
G1 X131.892 Y147.88 E10.5757
G1 X131.526 Y147.426 E10.62722
G1 X131.226 Y146.927 E10.67866
G1 X130.996 Y146.391 E10.73019
G1 X130.842 Y145.829 E10.78167
G1 X130.759 Y144.991 E10.85606
G1 X130.759 Y135.009 E11.73795
G1 X130.799 Y134.428 E11.7894
G1 X130.918 Y133.857 E11.84093
G1 X131.114 Y133.308 E11.89243
G1 X131.383 Y132.792 E11.94384
G1 X131.721 Y132.316 E11.99542
G1 X132.12 Y131.892 E12.04685
G0 F4500 X132.216 Y132.507
G1 F900 X132.61 Y132.127 E12.09521
G1 X133.055 Y131.808 E12.14359
G1 X133.542 Y131.558 E12.19195
G1 X134.06 Y131.381 E12.24031
G1 X134.598 Y131.282 E12.28864
G1 X135.009 Y131.259 E12.32501
G1 X144.991 Y131.26 E13.20689
G1 X145.537 Y131.3 E13.25526
G1 X146.072 Y131.419 E13.30368
G1 X146.583 Y131.615 E13.35203
G1 X147.06 Y131.882 E13.40032
G1 X147.493 Y132.217 E13.44869
G1 X147.873 Y132.611 E13.49705
G1 X148.192 Y133.056 E13.54542
G1 X148.442 Y133.543 E13.59379
G1 X148.619 Y134.061 E13.64215
G1 X148.718 Y134.599 E13.69048
G1 X148.741 Y135.01 E13.72684
G1 X148.741 Y144.991 E14.60864
G1 X148.701 Y145.537 E14.65701
G1 X148.582 Y146.071 E14.70534
G1 X148.387 Y146.582 E14.75366
G1 X148.119 Y147.06 E14.80208
G1 X147.784 Y147.493 E14.85044
G1 X147.39 Y147.873 E14.8988
G1 X146.945 Y148.192 E14.94718
G1 X146.458 Y148.442 E14.99554
G1 X145.94 Y148.619 E15.0439
G1 X145.402 Y148.718 E15.09223
G1 X144.991 Y148.741 E15.1286
G1 X135.009 Y148.741 E16.01048
G1 X134.463 Y148.701 E16.05885
G1 X133.929 Y148.582 E16.10718
G1 X133.418 Y148.387 E16.1555
G1 X132.94 Y148.119 E16.20392
G1 X132.507 Y147.784 E16.25228
G1 X132.127 Y147.39 E16.30064
G1 X131.808 Y146.945 E16.34902
G1 X131.558 Y146.458 E16.39738
G1 X131.381 Y145.94 E16.44574
G1 X131.282 Y145.402 E16.49407
G1 X131.259 Y144.991 E16.53044
G1 X131.259 Y135.009 E17.41232
G1 X131.299 Y134.463 E17.46069
G1 X131.418 Y133.929 E17.50902
G1 X131.613 Y133.418 E17.55734
G1 X131.881 Y132.94 E17.60576
G1 X132.216 Y132.507 E17.65412
G0 F4500 X132.709 Y132.713
G1 F900 X133.096 Y132.381 E17.69917
G1 X133.531 Y132.115 E17.74422
G1 X134.001 Y131.919 E17.78921
G1 X134.496 Y131.8 E17.83418
G1 X135.009 Y131.759 E17.87965
G1 X144.991 Y131.76 E18.76153
G1 X145.499 Y131.8 E18.80655
G1 X145.995 Y131.919 E18.85162
G1 X146.465 Y132.114 E18.89657
G1 X146.9 Y132.38 E18.94162
G1 X147.288 Y132.71 E18.98662
G1 X147.619 Y133.098 E19.03168
G1 X147.885 Y133.532 E19.07665
G1 X148.081 Y134.002 E19.12164
G1 X148.2 Y134.498 E19.1667
G1 X148.241 Y135.01 E19.21208
G1 X148.241 Y144.991 E20.09387
G1 X148.201 Y145.499 E20.13889
G1 X148.082 Y145.994 E20.18387
G1 X147.887 Y146.465 E20.22891
G1 X147.621 Y146.9 E20.27395
G1 X147.291 Y147.287 E20.31889
G1 X146.904 Y147.619 E20.36393
G1 X146.469 Y147.885 E20.40898
G1 X145.999 Y148.081 E20.45397
G1 X145.504 Y148.2 E20.49895
G1 X144.991 Y148.241 E20.54441
G1 X135.009 Y148.241 E21.4263
G1 X134.501 Y148.201 E21.47132
G1 X134.006 Y148.082 E21.51629
G1 X133.535 Y147.887 E21.56133
G1 X133.1 Y147.621 E21.60638
G1 X132.713 Y147.291 E21.65131
G1 X132.381 Y146.904 E21.69636
G1 X132.115 Y146.469 E21.7414
G1 X131.919 Y145.999 E21.78639
G1 X131.8 Y145.504 E21.83137
G1 X131.759 Y144.991 E21.87684
G1 X131.759 Y135.009 E22.75872
G1 X131.799 Y134.501 E22.80374
G1 X131.918 Y134.006 E22.84872
G1 X132.113 Y133.535 E22.89375
G1 X132.379 Y133.1 E22.9388
G1 X132.709 Y132.713 E22.98373
G1 F600 E21.48373
;MESH:
G0 F4500 X135.764 Y134.335
G0 X135.764 Y135.764
G0 X144.18 Y144.18
G0 X144.25 Y144.25
;TYPE:WALL-INNER
G1 F600 E22.98373
G1 F900 X135.75 Y144.25 E23.73469
G1 X135.75 Y135.75 E24.48564
G1 X144.25 Y135.75 E25.23659
G1 X144.25 Y144.25 E25.98754
G0 F4500 X144.75 Y144.75
;TYPE:WALL-OUTER
G1 F900 X135.25 Y144.75 E26.82684
G1 X135.25 Y135.25 E27.66614
G1 X144.75 Y135.25 E28.50544
G1 X144.75 Y144.75 E29.34473
G0 F4500 X144.5 Y144.75
G0 X144.18 Y144.18
G0 X143.76 Y143.76
;TYPE:SKIN
G1 F900 X136.24 Y143.76 E30.00911
G1 X136.24 Y136.24 E30.67348
G1 X143.76 Y136.24 E31.33785
G1 X143.76 Y143.76 E32.00222
G0 F4500 X143.534 Y137.17
G1 F900 X142.828 Y136.464 E32.09043
G0 F4500 X142.121 Y136.464
G1 F900 X143.534 Y137.878 E32.26703
G0 F4500 X143.534 Y138.585
G1 F900 X141.414 Y136.464 E32.53197
G0 F4500 X140.707 Y136.464
G1 F900 X143.534 Y139.292 E32.88525
G0 F4500 X143.534 Y139.999
G1 F900 X140 Y136.464 E33.32685
G0 F4500 X139.292 Y136.464
G1 F900 X143.534 Y140.706 E33.85686
G0 F4500 X143.534 Y141.413
G1 F900 X138.585 Y136.464 E34.47519
G0 F4500 X137.878 Y136.464
G1 F900 X143.534 Y142.12 E35.18186
G0 F4500 X143.534 Y142.827
G1 F900 X137.171 Y136.464 E35.97687
G0 F4500 X136.464 Y136.464
G1 F900 X143.534 Y143.534 E36.86021
G0 F4500 X142.827 Y143.534
G1 F900 X136.464 Y137.171 E37.65521
G0 F4500 X136.464 Y137.878
G1 F900 X142.119 Y143.534 E38.36182
G0 F4500 X141.412 Y143.534
G1 F900 X136.464 Y138.585 E38.9801
G0 F4500 X136.464 Y139.292
G1 F900 X140.705 Y143.534 E39.51004
G0 F4500 X139.998 Y143.534
M104 S205
G1 F900 X136.464 Y140 E39.95158
G0 F4500 X136.464 Y140.707
G1 F900 X139.291 Y143.534 E40.30479
G0 F4500 X138.584 Y143.534
G1 F900 X136.464 Y141.414 E40.56967
G0 F4500 X136.464 Y142.121
G1 F900 X137.877 Y143.534 E40.74621
G0 F4500 X137.17 Y143.534
G1 F900 X136.464 Y142.828 E40.83442
;MESH:NONMESH
G0 F4500 X144.18 Y144.18
G0 X144.25 Y144.25
;TIME_ELAPSED:46.665418
;LAYER:1
M140 S60
M221 S100 T0
M106 S51
;MESH:
G0 F6750 X144.25 Y144.25 Z0.565
;TYPE:WALL-INNER
G1 F666.7 X135.75 Y144.25 E41.08179
G1 X135.75 Y135.75 E41.32917
G1 X144.25 Y135.75 E41.57654
G1 X144.25 Y144.25 E41.82391
G0 F6750 X144.75 Y144.75
;TYPE:WALL-OUTER
G1 F600 X135.25 Y144.75 E42.10039
G1 X135.25 Y135.25 E42.37686
G1 X144.75 Y135.25 E42.65334
G1 X144.75 Y144.75 E42.92981
G0 F6750 X144.5 Y144.75
G0 X144.18 Y144.18
G0 X143.76 Y143.76
;TYPE:SKIN
G1 F800 X136.24 Y143.76 E43.14866
G1 X136.24 Y136.24 E43.36751
G1 X143.76 Y136.24 E43.58637
G1 X143.76 Y143.76 E43.80522
G0 F6750 X143.534 Y142.844
G1 F800 X142.843 Y143.534 E43.83364
G0 F6750 X142.136 Y143.534
G1 F800 X143.534 Y142.136 E43.89117
G0 F6750 X143.534 Y141.429
G1 F800 X141.429 Y143.534 E43.97781
G0 F6750 X140.722 Y143.534
G1 F800 X143.534 Y140.722 E44.09354
G0 F6750 X143.534 Y140.015
G1 F800 X140.014 Y143.534 E44.2384
G0 F6750 X139.307 Y143.534
G1 F800 X143.534 Y139.308 E44.41235
G0 F6750 X143.534 Y138.601
G1 F800 X138.6 Y143.534 E44.6154
G0 F6750 X137.893 Y143.534
G1 F800 X143.534 Y137.894 E44.84755
G0 F6750 X143.534 Y137.187
G1 F800 X137.186 Y143.534 E45.10879
G0 F6750 X136.479 Y143.534
G1 F800 X143.534 Y136.48 E45.39914
G0 F6750 X142.842 Y136.464
G1 F800 X136.464 Y142.842 E45.66164
G0 F6750 X136.464 Y142.135
G1 F800 X142.135 Y136.464 E45.89504
G0 F6750 X141.428 Y136.464
G1 F800 X136.464 Y141.428 E46.09935
G0 F6750 X136.464 Y140.721
G1 F800 X140.721 Y136.464 E46.27455
G0 F6750 X140.014 Y136.464
G1 F800 X136.464 Y140.014 E46.42066
G0 F6750 X136.464 Y139.307
G1 F800 X139.307 Y136.464 E46.53767
G0 F6750 X138.6 Y136.464
G1 F800 X136.464 Y138.6 E46.62558
G0 F6750 X136.464 Y137.892
G1 F800 X137.892 Y136.464 E46.68436
G0 F6750 X137.185 Y136.464
G1 F800 X136.464 Y137.185 E46.71403
G1 X136.376 Y137.273
;MESH:NONMESH
G0 F6750 X144.18 Y144.18
G0 X144.25 Y144.25
;TIME_ELAPSED:64.972679
;LAYER:2
M106 S102
;MESH:
G0 F9000 X144.25 Y144.25 Z0.705
;TYPE:WALL-INNER
G1 F700 X135.75 Y144.25 E46.9614
G1 X135.75 Y135.75 E47.20878
G1 X144.25 Y135.75 E47.45615
G1 X144.25 Y144.25 E47.70352
G0 F9000 X144.75 Y144.75
;TYPE:WALL-OUTER
G1 F600 X135.25 Y144.75 E47.97999
G1 X135.25 Y135.25 E48.25647
G1 X144.75 Y135.25 E48.53294
G1 X144.75 Y144.75 E48.80942
G0 F9000 X144.5 Y144.75
G0 X144.18 Y144.18
G0 X143.76 Y143.76
;TYPE:SKIN
G1 F900 X136.24 Y143.76 E49.02827
G1 X136.24 Y136.24 E49.24712
G1 X143.76 Y136.24 E49.46597
G1 X143.76 Y143.76 E49.68483
G0 F9000 X143.534 Y137.17
G1 F900 X142.828 Y136.464 E49.71388
G0 F9000 X142.121 Y136.464
G1 F900 X143.534 Y137.878 E49.77206
G0 F9000 X143.534 Y138.585
G1 F900 X141.414 Y136.464 E49.85933
G0 F9000 X140.707 Y136.464
G1 F900 X143.534 Y139.292 E49.97571
G0 F9000 X143.534 Y139.999
G1 F900 X140 Y136.464 E50.12118
G0 F9000 X139.292 Y136.464
G1 F900 X143.534 Y140.706 E50.29577
G0 F9000 X143.534 Y141.413
G1 F900 X138.585 Y136.464 E50.49945
G0 F9000 X137.878 Y136.464
G1 F900 X143.534 Y142.12 E50.73224
G0 F9000 X143.534 Y142.827
G1 F900 X137.171 Y136.464 E50.99412
G0 F9000 X136.464 Y136.464
G1 F900 X143.534 Y143.534 E51.28511
G0 F9000 X142.827 Y143.534
G1 F900 X136.464 Y137.171 E51.54699
G0 F9000 X136.464 Y137.878
G1 F900 X142.119 Y143.534 E51.77975
G0 F9000 X141.412 Y143.534
G1 F900 X136.464 Y138.585 E51.98342
G0 F9000 X136.464 Y139.292
G1 F900 X140.705 Y143.534 E52.15799
G0 F9000 X139.998 Y143.534
G1 F900 X136.464 Y140 E52.30344
G0 F9000 X136.464 Y140.707
G1 F900 X139.291 Y143.534 E52.41979
G0 F9000 X138.584 Y143.534
G1 F900 X136.464 Y141.414 E52.50705
G0 F9000 X136.464 Y142.121
G1 F900 X137.877 Y143.534 E52.5652
G0 F9000 X137.17 Y143.534
G1 F900 X136.464 Y142.828 E52.59426
;MESH:NONMESH
G0 F9000 X144.18 Y144.18
G0 X144.25 Y144.25
;TIME_ELAPSED:82.177096
;LAYER:3
M106 S153
;MESH:
G0 X144.25 Y144.25 Z0.845
;TYPE:WALL-INNER
G1 F700 X135.75 Y144.25 E52.84163
G1 X135.75 Y135.75 E53.089
G1 X144.25 Y135.75 E53.33637
G1 X144.25 Y144.25 E53.58375
G0 F9000 X144.75 Y144.75
;TYPE:WALL-OUTER
G1 F600 X135.25 Y144.75 E53.86022
G1 X135.25 Y135.25 E54.1367
G1 X144.75 Y135.25 E54.41317
G1 X144.75 Y144.75 E54.68965
G0 F9000 X144.5 Y144.75
G0 X144.18 Y144.18
G0 X143.76 Y143.76
;TYPE:SKIN
G1 F900 X136.24 Y143.76 E54.9085
G1 X136.24 Y136.24 E55.12735
G1 X143.76 Y136.24 E55.3462
G1 X143.76 Y143.76 E55.56505
G0 F9000 X143.534 Y142.844
G1 F900 X142.843 Y143.534 E55.59347
G0 F9000 X142.136 Y143.534
G1 F900 X143.534 Y142.136 E55.65101
G0 F9000 X143.534 Y141.429
G1 F900 X141.429 Y143.534 E55.73765
G0 F9000 X140.722 Y143.534
G1 F900 X143.534 Y140.722 E55.85338
G0 F9000 X143.534 Y140.015
G1 F900 X140.014 Y143.534 E55.99823
G0 F9000 X139.307 Y143.534
G1 F900 X143.534 Y139.308 E56.17218
G0 F9000 X143.534 Y138.601
G1 F900 X138.6 Y143.534 E56.37523
G0 F9000 X137.893 Y143.534
G1 F900 X143.534 Y137.894 E56.60738
G0 F9000 X143.534 Y137.187
G1 F900 X137.186 Y143.534 E56.86863
G0 F9000 X136.479 Y143.534
G1 F900 X143.534 Y136.48 E57.15897
G0 F9000 X142.842 Y136.464
G1 F900 X136.464 Y142.842 E57.42147
G0 F9000 X136.464 Y142.135
G1 F900 X142.135 Y136.464 E57.65488
G0 F9000 X141.428 Y136.464
G1 F900 X136.464 Y141.428 E57.85918
G0 F9000 X136.464 Y140.721
G1 F900 X140.721 Y136.464 E58.03439
